austria/municipalities/70629.svg

<?xml version="1.0" encoding="UTF-8"?>
<!DOCTYPE svg PUBLIC "-//W3C//DTD SVG 1.1//EN" "http://www.w3.org/Graphics/SVG/1.1/DTD/svg11.dtd">
<svg xmlns="http://www.w3.org/2000/svg" version="1.1" width="166px" height="192px" style="shape-rendering:geometricPrecision; text-rendering:geometricPrecision; image-rendering:optimizeQuality; fill-rule:evenodd; clip-rule:evenodd" xmlns:xlink="http://www.w3.org/1999/xlink">
<g><path style="opacity:1" fill="#000000" d="M -0.5,-0.5 C 54.8333,-0.5 110.167,-0.5 165.5,-0.5C 165.5,39.5 165.5,79.5 165.5,119.5C 161.89,140.883 151.89,158.716 135.5,173C 130.672,176.581 125.672,179.915 120.5,183C 112.336,186.554 104.002,189.388 95.5,191.5C 86.8333,191.5 78.1667,191.5 69.5,191.5C 30.064,182.064 6.73062,157.397 -0.5,117.5C -0.5,78.1667 -0.5,38.8333 -0.5,-0.5 Z"/></g>
<g><path style="opacity:1" fill="#fe9900" d="M 40.5,4.5 C 39.5041,4.41423 38.6708,4.74756 38,5.5C 37.2204,7.38695 37.3871,9.05361 38.5,10.5C 38.33,11.8221 38.6634,12.9887 39.5,14C 29.5056,14.4998 19.5056,14.6665 9.5,14.5C 9.33337,38.5023 9.50003,62.5023 10,86.5C 20.7592,87.1613 31.5926,87.4946 42.5,87.5C 53.4074,87.4946 64.2408,87.1613 75,86.5C 75.5,62.5023 75.6666,38.5023 75.5,14.5C 65.4944,14.6665 55.4944,14.4998 45.5,14C 47.3467,11.4209 47.8467,8.58761 47,5.5C 46.3292,4.74756 45.4959,4.41423 44.5,4.5C 56.6554,3.50478 68.9887,3.17145 81.5,3.5C 81.5,33.1667 81.5,62.8333 81.5,92.5C 55.5,92.5 29.5,92.5 3.5,92.5C 3.5,62.8333 3.5,33.1667 3.5,3.5C 16.0113,3.17145 28.3446,3.50478 40.5,4.5 Z"/></g>
<g><path style="opacity:1" fill="#006632" d="M 83.5,3.5 C 109.5,3.5 135.5,3.5 161.5,3.5C 161.5,33.1667 161.5,62.8333 161.5,92.5C 135.5,92.5 109.5,92.5 83.5,92.5C 83.5,62.8333 83.5,33.1667 83.5,3.5 Z"/></g>
<g><path style="opacity:1" fill="#000000" d="M 40.5,4.5 C 38.9192,6.14166 38.2525,8.14166 38.5,10.5C 37.3871,9.05361 37.2204,7.38695 38,5.5C 38.6708,4.74756 39.5041,4.41423 40.5,4.5 Z"/></g>
<g><path style="opacity:1" fill="#006632" d="M 40.5,4.5 C 41.8333,4.5 43.1667,4.5 44.5,4.5C 45.5817,5.5938 46.2483,6.92714 46.5,8.5C 45.0629,10.5771 44.3962,12.9105 44.5,15.5C 54.1667,15.5 63.8333,15.5 73.5,15.5C 73.5,38.8333 73.5,62.1667 73.5,85.5C 52.8333,85.5 32.1667,85.5 11.5,85.5C 11.5,62.1667 11.5,38.8333 11.5,15.5C 21.1667,15.5 30.8333,15.5 40.5,15.5C 40.8799,13.302 40.2132,11.6354 38.5,10.5C 38.2525,8.14166 38.9192,6.14166 40.5,4.5 Z"/></g>
<g><path style="opacity:1" fill="#000000" d="M 44.5,4.5 C 45.4959,4.41423 46.3292,4.74756 47,5.5C 47.8467,8.58761 47.3467,11.4209 45.5,14C 55.4944,14.4998 65.4944,14.6665 75.5,14.5C 75.6666,38.5023 75.5,62.5023 75,86.5C 64.2408,87.1613 53.4074,87.4946 42.5,87.5C 31.5926,87.4946 20.7592,87.1613 10,86.5C 9.50003,62.5023 9.33337,38.5023 9.5,14.5C 19.5056,14.6665 29.5056,14.4998 39.5,14C 38.6634,12.9887 38.33,11.8221 38.5,10.5C 40.2132,11.6354 40.8799,13.302 40.5,15.5C 30.8333,15.5 21.1667,15.5 11.5,15.5C 11.5,38.8333 11.5,62.1667 11.5,85.5C 32.1667,85.5 52.8333,85.5 73.5,85.5C 73.5,62.1667 73.5,38.8333 73.5,15.5C 63.8333,15.5 54.1667,15.5 44.5,15.5C 44.3962,12.9105 45.0629,10.5771 46.5,8.5C 46.2483,6.92714 45.5817,5.5938 44.5,4.5 Z"/></g>
<g><path style="opacity:1" fill="#000000" d="M 15.5,19.5 C 23.8333,19.5 32.1667,19.5 40.5,19.5C 40.5,25.8333 40.5,32.1667 40.5,38.5C 32.1667,38.5 23.8333,38.5 15.5,38.5C 15.5,32.1667 15.5,25.8333 15.5,19.5 Z"/></g>
<g><path style="opacity:1" fill="#000000" d="M 44.5,19.5 C 52.8333,19.5 61.1667,19.5 69.5,19.5C 69.5,25.8333 69.5,32.1667 69.5,38.5C 61.1667,38.5 52.8333,38.5 44.5,38.5C 44.5,32.1667 44.5,25.8333 44.5,19.5 Z"/></g>
<g><path style="opacity:1" fill="#fe9900" d="M 17.5,20.5 C 24.5,20.5 31.5,20.5 38.5,20.5C 38.5,25.8333 38.5,31.1667 38.5,36.5C 31.5,36.5 24.5,36.5 17.5,36.5C 17.5,31.1667 17.5,25.8333 17.5,20.5 Z"/></g>
<g><path style="opacity:1" fill="#fe9900" d="M 46.5,20.5 C 53.8333,20.5 61.1667,20.5 68.5,20.5C 68.5,25.8333 68.5,31.1667 68.5,36.5C 61.1667,36.5 53.8333,36.5 46.5,36.5C 46.5,31.1667 46.5,25.8333 46.5,20.5 Z"/></g>
<g><path style="opacity:1" fill="#000000" d="M 15.5,41.5 C 23.8333,41.5 32.1667,41.5 40.5,41.5C 40.5,47.8333 40.5,54.1667 40.5,60.5C 32.1667,60.5 23.8333,60.5 15.5,60.5C 15.5,54.1667 15.5,47.8333 15.5,41.5 Z"/></g>
<g><path style="opacity:1" fill="#000000" d="M 44.5,41.5 C 52.8333,41.5 61.1667,41.5 69.5,41.5C 69.5,47.8333 69.5,54.1667 69.5,60.5C 61.1667,60.5 52.8333,60.5 44.5,60.5C 44.5,54.1667 44.5,47.8333 44.5,41.5 Z"/></g>
<g><path style="opacity:1" fill="#fe9900" d="M 17.5,42.5 C 24.5,42.5 31.5,42.5 38.5,42.5C 38.5,47.8333 38.5,53.1667 38.5,58.5C 31.5,58.5 24.5,58.5 17.5,58.5C 17.5,53.1667 17.5,47.8333 17.5,42.5 Z"/></g>
<g><path style="opacity:1" fill="#fe9900" d="M 46.5,42.5 C 53.8333,42.5 61.1667,42.5 68.5,42.5C 68.5,47.8333 68.5,53.1667 68.5,58.5C 61.1667,58.5 53.8333,58.5 46.5,58.5C 46.5,53.1667 46.5,47.8333 46.5,42.5 Z"/></g>
<g><path style="opacity:1" fill="#000000" d="M 15.5,63.5 C 23.8333,63.5 32.1667,63.5 40.5,63.5C 40.5,69.8333 40.5,76.1667 40.5,82.5C 32.1667,82.5 23.8333,82.5 15.5,82.5C 15.5,76.1667 15.5,69.8333 15.5,63.5 Z"/></g>
<g><path style="opacity:1" fill="#000000" d="M 44.5,63.5 C 52.8333,63.5 61.1667,63.5 69.5,63.5C 69.5,69.8333 69.5,76.1667 69.5,82.5C 61.1667,82.5 52.8333,82.5 44.5,82.5C 44.5,76.1667 44.5,69.8333 44.5,63.5 Z"/></g>
<g><path style="opacity:1" fill="#fe9900" d="M 17.5,64.5 C 24.5,64.5 31.5,64.5 38.5,64.5C 38.5,70.1667 38.5,75.8333 38.5,81.5C 31.5,81.5 24.5,81.5 17.5,81.5C 17.5,75.8333 17.5,70.1667 17.5,64.5 Z"/></g>
<g><path style="opacity:1" fill="#fe9900" d="M 46.5,64.5 C 53.8333,64.5 61.1667,64.5 68.5,64.5C 68.5,70.1667 68.5,75.8333 68.5,81.5C 61.1667,81.5 53.8333,81.5 46.5,81.5C 46.5,75.8333 46.5,70.1667 46.5,64.5 Z"/></g>
<g><path style="opacity:1" fill="#006632" d="M 3.5,94.5 C 29.5,94.5 55.5,94.5 81.5,94.5C 81.5,125.5 81.5,156.5 81.5,187.5C 43.6132,185.457 18.4465,166.457 6,130.5C 3.79728,118.609 2.96395,106.609 3.5,94.5 Z"/></g>
<g><path style="opacity:1" fill="#fe9900" d="M 83.5,94.5 C 109.5,94.5 135.5,94.5 161.5,94.5C 165.378,127.41 154.378,153.91 128.5,174C 114.902,183.13 99.9017,187.63 83.5,187.5C 83.5,156.5 83.5,125.5 83.5,94.5 Z"/></g>
<g><path style="opacity:1" fill="#000000" d="M 147.5,117.5 C 142.5,113.5 137.5,109.5 132.5,105.5C 132.783,104.711 133.283,104.044 134,103.5C 138.703,108.035 143.203,112.702 147.5,117.5 Z"/></g>
<g><path style="opacity:1" fill="#000000" d="M 111.5,105.5 C 109.098,107.909 106.431,109.909 103.5,111.5C 105.294,109.203 107.294,107.037 109.5,105C 110.437,104.308 111.103,104.475 111.5,105.5 Z"/></g>
<g><path style="opacity:1" fill="#09562c" d="M 111.5,105.5 C 114.297,107.795 116.964,110.295 119.5,113C 116.983,115.349 114.65,117.849 112.5,120.5C 113.857,122.186 115.19,123.852 116.5,125.5C 117.048,127.394 118.048,129.06 119.5,130.5C 119.137,131.183 118.804,131.85 118.5,132.5C 117.167,133.833 115.833,133.833 114.5,132.5C 111.916,130.422 109.416,128.088 107,125.5C 103.964,128.704 100.797,131.704 97.5,134.5C 96.2383,128.963 96.2383,123.297 97.5,117.5C 99.1667,115.167 101.167,113.167 103.5,111.5C 106.431,109.909 109.098,107.909 111.5,105.5 Z"/></g>
<g><path style="opacity:1" fill="#fefffe" d="M -0.5,117.5 C 6.73062,157.397 30.064,182.064 69.5,191.5C 46.1667,191.5 22.8333,191.5 -0.5,191.5C -0.5,166.833 -0.5,142.167 -0.5,117.5 Z"/></g>
<g><path style="opacity:1" fill="#000000" d="M 97.5,117.5 C 96.2383,123.297 96.2383,128.963 97.5,134.5C 97.2172,135.289 96.7172,135.956 96,136.5C 95.3333,130.5 95.3333,124.5 96,118.5C 96.3826,117.944 96.8826,117.611 97.5,117.5 Z"/></g>
<g><path style="opacity:1" fill="#000000" d="M 147.5,117.5 C 148.117,117.611 148.617,117.944 149,118.5C 149.667,124.5 149.667,130.5 149,136.5C 148.283,135.956 147.783,135.289 147.5,134.5C 148.762,128.963 148.762,123.297 147.5,117.5 Z"/></g>
<g><path style="opacity:1" fill="#09562c" d="M 132.5,105.5 C 137.5,109.5 142.5,113.5 147.5,117.5C 148.762,123.297 148.762,128.963 147.5,134.5C 143.833,131.5 140.5,128.167 137.5,124.5C 137.217,123.711 136.717,123.044 136,122.5C 133.546,124.441 131.713,126.775 130.5,129.5C 129.5,131.167 128.167,132.5 126.5,133.5C 125.711,133.783 125.044,134.283 124.5,135C 125.705,136.376 127.038,137.542 128.5,138.5C 132.606,141.437 136.273,144.937 139.5,149C 138.295,150.376 136.962,151.542 135.5,152.5C 131.167,148.5 126.833,144.5 122.5,140.5C 122.217,139.711 121.717,139.044 121,138.5C 119.293,140.037 117.793,141.704 116.5,143.5C 113.871,146.631 111.038,149.631 108,152.5C 106.624,151.295 105.458,149.962 104.5,148.5C 107.57,145.436 110.237,142.103 112.5,138.5C 112.833,137.5 113.5,136.833 114.5,136.5C 116.5,135.833 117.833,134.5 118.5,132.5C 120.264,131.674 121.598,130.341 122.5,128.5C 125.12,125.205 127.786,121.871 130.5,118.5C 128.833,116.5 127.167,114.5 125.5,112.5C 127.521,109.812 129.854,107.479 132.5,105.5 Z"/></g>
<g><path style="opacity:1" fill="#fefffe" d="M 165.5,119.5 C 165.5,143.5 165.5,167.5 165.5,191.5C 142.167,191.5 118.833,191.5 95.5,191.5C 104.002,189.388 112.336,186.554 120.5,183C 125.672,179.915 130.672,176.581 135.5,173C 151.89,158.716 161.89,140.883 165.5,119.5 Z"/></g>
<g><path style="opacity:1" fill="#000000" d="M 137.5,124.5 C 134.907,125.754 132.573,127.42 130.5,129.5C 131.713,126.775 133.546,124.441 136,122.5C 136.717,123.044 137.217,123.711 137.5,124.5 Z"/></g>
<g><path style="opacity:1" fill="#000000" d="M 116.5,125.5 C 118.053,127.385 120.053,128.385 122.5,128.5C 121.598,130.341 120.264,131.674 118.5,132.5C 118.804,131.85 119.137,131.183 119.5,130.5C 118.048,129.06 117.048,127.394 116.5,125.5 Z"/></g>
<g><path style="opacity:1" fill="#000000" d="M 114.5,132.5 C 115.833,133.833 117.167,133.833 118.5,132.5C 117.833,134.5 116.5,135.833 114.5,136.5C 115.405,135.298 115.405,133.964 114.5,132.5 Z"/></g>
<g><path style="opacity:1" fill="#000000" d="M 126.5,133.5 C 127.167,135.167 127.833,136.833 128.5,138.5C 127.038,137.542 125.705,136.376 124.5,135C 125.044,134.283 125.711,133.783 126.5,133.5 Z"/></g>
<g><path style="opacity:1" fill="#000000" d="M 112.5,138.5 C 110.237,142.103 107.57,145.436 104.5,148.5C 103.475,148.103 103.308,147.437 104,146.5C 106.703,143.629 109.536,140.962 112.5,138.5 Z"/></g>
<g><path style="opacity:1" fill="#000000" d="M 122.5,140.5 C 120.5,141.5 118.5,142.5 116.5,143.5C 117.793,141.704 119.293,140.037 121,138.5C 121.717,139.044 122.217,139.711 122.5,140.5 Z"/></g>
<g><path style="opacity:1" fill="#000000" d="M 122.5,140.5 C 126.833,144.5 131.167,148.5 135.5,152.5C 135.103,153.525 134.437,153.692 133.5,153C 129.23,149.239 125.563,145.072 122.5,140.5 Z"/></g>
</svg>

<svg xmlns="http://www.w3.org/2000/svg" width="166" height="192" style="shape-rendering:geometricPrecision;text-rendering:geometricPrecision;image-rendering:optimizeQuality;fill-rule:evenodd;clip-rule:evenodd"><path style="opacity:1" d="M-.5-.5h166v120c-3.61 21.383-13.61 39.216-30 53.5a179.617 179.617 0 0 1-15 10 157.946 157.946 0 0 1-25 8.5h-26c-39.436-9.436-62.77-34.103-70-74V-.5z"/><path style="opacity:1" fill="#fe9900" d="M40.5 4.5c-.996-.086-1.83.248-2.5 1-.78 1.887-.613 3.554.5 5-.17 1.322.163 2.489 1 3.5-9.994.5-19.994.666-30 .5-.167 24.002 0 48.002.5 72 10.76.661 21.593.995 32.5 1a533.964 533.964 0 0 0 32.5-1c.5-23.998.667-47.998.5-72-10.006.166-20.006 0-30-.5 1.847-2.58 2.347-5.412 1.5-8.5-.67-.752-1.504-1.086-2.5-1 12.155-.995 24.489-1.329 37-1v89h-78v-89c12.511-.329 24.845.005 37 1z"/><path style="opacity:1" fill="#006632" d="M83.5 3.5h78v89h-78v-89z"/><path style="opacity:1" d="M40.5 4.5c-1.58 1.642-2.248 3.642-2 6-1.113-1.446-1.28-3.113-.5-5 .67-.752 1.504-1.086 2.5-1z"/><path style="opacity:1" fill="#006632" d="M40.5 4.5h4c1.082 1.094 1.748 2.427 2 4-1.437 2.077-2.104 4.41-2 7h29v70h-62v-70h29c.38-2.198-.287-3.865-2-5-.248-2.358.42-4.358 2-6z"/><path style="opacity:1" d="M44.5 4.5c.996-.086 1.83.248 2.5 1 .847 3.088.347 5.92-1.5 8.5 9.994.5 19.994.666 30 .5.167 24.002 0 48.002-.5 72-10.76.661-21.593.995-32.5 1a533.964 533.964 0 0 1-32.5-1c-.5-23.998-.667-47.998-.5-72 10.006.166 20.006 0 30-.5-.837-1.011-1.17-2.178-1-3.5 1.713 1.135 2.38 2.802 2 5h-29v70h62v-70h-29c-.104-2.59.563-4.923 2-7-.252-1.573-.918-2.906-2-4z"/><path style="opacity:1" d="M15.5 19.5h25v19h-25v-19zM44.5 19.5h25v19h-25v-19z"/><path style="opacity:1" fill="#fe9900" d="M17.5 20.5h21v16h-21v-16zM46.5 20.5h22v16h-22v-16z"/><path style="opacity:1" d="M15.5 41.5h25v19h-25v-19zM44.5 41.5h25v19h-25v-19z"/><path style="opacity:1" fill="#fe9900" d="M17.5 42.5h21v16h-21v-16zM46.5 42.5h22v16h-22v-16z"/><path style="opacity:1" d="M15.5 63.5h25v19h-25v-19zM44.5 63.5h25v19h-25v-19z"/><path style="opacity:1" fill="#fe9900" d="M17.5 64.5h21v17h-21v-17zM46.5 64.5h22v17h-22v-17z"/><path style="opacity:1" fill="#006632" d="M3.5 94.5h78v93c-37.887-2.043-63.053-21.043-75.5-57a158.52 158.52 0 0 1-2.5-36z"/><path style="opacity:1" fill="#fe9900" d="M83.5 94.5h78c3.878 32.91-7.122 59.41-33 79.5-13.598 9.13-28.598 13.63-45 13.5v-93z"/><path style="opacity:1" d="m147.5 117.5-15-12c.283-.789.783-1.456 1.5-2a265.628 265.628 0 0 1 13.5 14zM111.5 105.5a34.482 34.482 0 0 1-8 6 54.53 54.53 0 0 1 6-6.5c.937-.692 1.603-.525 2 .5z"/><path style="opacity:1" fill="#09562c" d="M111.5 105.5a84.01 84.01 0 0 1 8 7.5 74.048 74.048 0 0 0-7 7.5c1.357 1.686 2.69 3.352 4 5 .548 1.894 1.548 3.56 3 5-.363.683-.696 1.35-1 2-1.333 1.333-2.667 1.333-4 0a72.043 72.043 0 0 1-7.5-7 120.087 120.087 0 0 1-9.5 9c-1.262-5.537-1.262-11.203 0-17a25.652 25.652 0 0 1 6-6 34.482 34.482 0 0 0 8-6z"/><path style="opacity:1" fill="#fefffe" d="M-.5 117.5c7.23 39.897 30.564 64.564 70 74h-70v-74z"/><path style="opacity:1" d="M97.5 117.5c-1.262 5.797-1.262 11.463 0 17-.283.789-.783 1.456-1.5 2-.667-6-.667-12 0-18 .383-.556.883-.889 1.5-1zM147.5 117.5c.617.111 1.117.444 1.5 1 .667 6 .667 12 0 18-.717-.544-1.217-1.211-1.5-2 1.262-5.537 1.262-11.203 0-17z"/><path style="opacity:1" fill="#09562c" d="m132.5 105.5 15 12c1.262 5.797 1.262 11.463 0 17-3.667-3-7-6.333-10-10-.283-.789-.783-1.456-1.5-2-2.454 1.941-4.287 4.275-5.5 7-1 1.667-2.333 3-4 4-.789.283-1.456.783-2 1.5a19.552 19.552 0 0 0 4 3.5c4.106 2.937 7.773 6.437 11 10.5a19.552 19.552 0 0 1-4 3.5l-13-12c-.283-.789-.783-1.456-1.5-2a31.447 31.447 0 0 0-4.5 5 107.125 107.125 0 0 1-8.5 9 19.552 19.552 0 0 1-3.5-4 56.72 56.72 0 0 0 8-10c.333-1 1-1.667 2-2 2-.667 3.333-2 4-4 1.764-.826 3.098-2.159 4-4 2.62-3.295 5.286-6.629 8-10l-5-6a34.807 34.807 0 0 1 7-7z"/><path style="opacity:1" fill="#fefffe" d="M165.5 119.5v72h-70a157.946 157.946 0 0 0 25-8.5 179.617 179.617 0 0 0 15-10c16.39-14.284 26.39-32.117 30-53.5z"/><path style="opacity:1" d="M137.5 124.5a25.497 25.497 0 0 0-7 5c1.213-2.725 3.046-5.059 5.5-7 .717.544 1.217 1.211 1.5 2zM116.5 125.5c1.553 1.885 3.553 2.885 6 3-.902 1.841-2.236 3.174-4 4 .304-.65.637-1.317 1-2-1.452-1.44-2.452-3.106-3-5zM114.5 132.5c1.333 1.333 2.667 1.333 4 0-.667 2-2 3.333-4 4 .905-1.202.905-2.536 0-4zM126.5 133.5l2 5a19.552 19.552 0 0 1-4-3.5c.544-.717 1.211-1.217 2-1.5zM112.5 138.5a56.72 56.72 0 0 1-8 10c-1.025-.397-1.192-1.063-.5-2a95.356 95.356 0 0 1 8.5-8zM122.5 140.5l-6 3a31.447 31.447 0 0 1 4.5-5c.717.544 1.217 1.211 1.5 2zM122.5 140.5l13 12c-.397 1.025-1.063 1.192-2 .5-4.27-3.761-7.937-7.928-11-12.5z"/></svg>
